X:1     %Music
T:GAVOTTE D' YVES HAIRE TON SIMP     %Tune name
C:Compos par JH :     %Tune composer
I:Remarks :     %Tune infos
Q:1/4=208     %Tempo
V:1     %
     %!STAVE 0 'Melody' @
     %!INSTR 'Piano' 0 7100 @
|:
M:6/8     %Meter
L:1/8     %
K:C
"A"A2 "a"B "E"c2 "e"d |"D"e2 "g"a "E"g3 |"e"e"A"d"a"c "E"B2 "e"d |"C"e3 "c"e3 ::
"A"A2 "a"B "C"c2 "g"d |"D"e2 "d"a "D"g3 |"c"ed"e"c "C"B2 "g"c |"D"A3 "d"A3 ::
"E"d2 "e"c "G"B2 "g"c |"D"d2 "c"e "F"f3 |"f"e2 "F"d "f"c2 "G"d |"g"B3 "D"B3 ::
"c"d2 "F"c "f"B2 "A"c |"a"d2 "D"e "d"f3 |"E"e2 "e"d "D"c2 "g"B |"E"G3 "e"G3 ::
D2 "e"C "E"D2 "e"E |"D"F2 "g"D "F"A3 |"f"F2 "E"A "e"D2 F |G3 G3 ::
D2 C D2 E |F2 D C3 |B,2 A, B,2 C |D3 D3 ::
E2 B B2 c |d2 c B3 |e2 f e2 d |B3 B3 ::
E2 B B2 c |d2 c B3 |F2 E D2 F |E3 E3 :|
     %End of file

     %!HARMONY ABC @
     %Harmony/Melody File to ABC Vers 2.7 April 1998-March 2001
     %Written by Guillion Bros. on a Chris Walshaw format
     %Please e-mail us your comments and bugs reports ! (abc@myriad-online.com)
     %Samedi 3 décembre 2005 18:12:06


